images/marker-poi-boost-cup.svg

<svg xmlns="http://www.w3.org/2000/svg" viewBox="0 0 64 64" enable-background="new 0 0 64 64"><style type="text/css">.st0{display:none;fill:#9CE4FA;} .st1{fill:#555556;} .st2{fill:#C8CAC9;}</style><path class="st0" d="M32 60.9l-25.606-14.45v-28.9l25.606-14.45 25.605 14.45v28.9l-25.605 14.45zm-21.606-16.707l21.606 12.192 21.605-12.192v-24.386l-21.605-12.192-21.606 12.192v24.386z"/><circle class="st1" cx="32" cy="33.25" r="28.9"/><path class="st2" d="M55.939 12.399c-1.504-2.489-7.532-4.013-17.915-4.53-.074-.004-4.768-.119-6.024-.119-1.338 0-5.95.115-6.024.119-10.384.517-16.411 2.041-17.915 4.53-1.946 3.218.1 18.503 1.688 20.424 1.96 2.37 7.118 5.099 13.658 8.421l1.098.558c1.863.95 2.612 3.323 1.469 5.074-.094.144-.178.285-.25.423-1.684 3.238-3.52 8.636-3.597 8.865l-.875 2.586h21.498l-.875-2.586c-.078-.228-1.913-5.627-3.597-8.865-.072-.138-.156-.28-.25-.423-1.144-1.751-.394-4.125 1.469-5.074l1.098-.558c6.54-3.322 11.698-6.052 13.658-8.421 1.586-1.922 3.632-17.206 1.686-20.424zm-43.094 18.022c-.896-1.983-2.357-14.055-1.42-16.023.517-.607 2.676-1.08 6.221-1.616-.054 3.901-.072 14.902.136 16.501.201 1.546.771 3.687 1.225 5.249-2.723-1.499-5.187-3.012-6.162-4.111zm26.903-3.368h-5.219v5.219h-4.975v-5.219h-5.219v-4.975h5.219v-5.219h4.975v5.219h5.219v4.975zm11.407 3.368c-.975 1.099-3.439 2.613-6.162 4.11.454-1.562 1.024-3.703 1.225-5.249.208-1.599.19-12.6.136-16.501 3.545.536 5.704 1.01 6.221 1.616.937 1.968-.524 14.04-1.42 16.024z"/></svg>

<?xml version="1.0" encoding="utf-8"?>
<!-- Generator: Adobe Illustrator 21.0.1, SVG Export Plug-In . SVG Version: 6.00 Build 0)  -->
<svg version="1.1" id="Layer_1" xmlns="http://www.w3.org/2000/svg" xmlns:xlink="http://www.w3.org/1999/xlink" x="0px" y="0px"
	 viewBox="0 0 64 64" style="enable-background:new 0 0 64 64;" xml:space="preserve">
<style type="text/css">
	.st0{display:none;fill:#9CE4FA;}
	.st1{fill:#555556;}
	.st2{fill:#C8CAC9;}
</style>
<path class="st0" d="M32,60.9L6.394,46.45v-28.9L32,3.1l25.605,14.45v28.9L32,60.9z M10.394,44.193L32,56.385l21.605-12.192V19.807
	L32,7.615L10.394,19.807V44.193z"/>
<circle class="st1" cx="32" cy="33.25" r="28.9"/>
<path class="st2" d="M55.939,12.399c-1.504-2.489-7.532-4.013-17.915-4.53C37.95,7.865,33.256,7.75,32,7.75
	c-1.338,0-5.95,0.115-6.024,0.119C15.592,8.386,9.565,9.91,8.061,12.399c-1.946,3.218,0.1,18.503,1.688,20.424
	c1.96,2.37,7.118,5.099,13.658,8.421c0.366,0.186,0.734,0.373,1.098,0.558c1.863,0.95,2.612,3.323,1.469,5.074
	c-0.094,0.144-0.178,0.285-0.25,0.423c-1.684,3.238-3.52,8.636-3.597,8.865l-0.875,2.586h21.498l-0.875-2.586
	c-0.078-0.228-1.913-5.627-3.597-8.865c-0.072-0.138-0.156-0.28-0.25-0.423c-1.144-1.751-0.394-4.125,1.469-5.074
	c0.364-0.185,0.732-0.372,1.098-0.558c6.54-3.322,11.698-6.052,13.658-8.421C55.839,30.901,57.885,15.617,55.939,12.399z
	 M12.845,30.421c-0.896-1.983-2.357-14.055-1.42-16.023c0.517-0.607,2.676-1.08,6.221-1.616c-0.054,3.901-0.072,14.902,0.136,16.501
	c0.201,1.546,0.771,3.687,1.225,5.249C16.284,33.033,13.82,31.52,12.845,30.421z M39.748,27.053h-5.219v5.219h-4.975v-5.219h-5.219
	v-4.975h5.219v-5.219h4.975v5.219h5.219V27.053z M51.155,30.421c-0.975,1.099-3.439,2.613-6.162,4.11
	c0.454-1.562,1.024-3.703,1.225-5.249c0.208-1.599,0.19-12.6,0.136-16.501c3.545,0.536,5.704,1.01,6.221,1.616
	C53.512,16.365,52.051,28.437,51.155,30.421z"/>
</svg>
